X:1
T:Ach Gott vom Himmel sih da rein.
T:Hans Leo Hassler
T:Ach Gott von Himmel sih da rein
C:Hans Leo Hassler
%%score [ 1 2 3 4 ]
L:1/8
Q:1/4=140
M:4/2
K:F
V:1 treble nm="Soprano" snm="S"
V:2 treble nm="Alto" snm="A"
V:3 treble-8 nm="Tenor" snm="T"
V:4 bass nm="Bass" snm="B"
V:1
"^Psalm 12 Salvum me fac" A8 B4 A4 | G4 d4 d4 B4 | A6 c2 B4 A4 | G4 c4 B4 A4 |[M:1/2] G4 | %5
w: Ach Gott von|Him- mel sih da|rein und laß dich|deß er- bar- *|men|
[M:4/2] A8 B4 A4 | G4 d4 d4 B4 | A6 c2 B4 A4 | G4 c4 B4 A4 | G4 G4 A4 F4 | E4 D4 F4 G4 | %11
w: Wie we- nig|sind der Heil- gen|dein, ver- laß- sen|sind wir Ar- *|men; dein Wort man|lest nicht ha- ben|
 A6 F2 G4 B4 | A4 B4 G4 ^F4 | G6 G2 d4 B4 | c4 d4 c4 B4 | A16 |] %16
w: waar, der Glaub ist|auch ver- lo- schen|gar bey al- len|Men- schen Kin- *|der.|
V:2
 ^F8 G4 F4 | _E4 F4 F4 G4 | ^F6 G2 G4 =F4 | _E4 G4 G4 ^F4 |[M:1/2] G4 |[M:4/2] ^F8 G4 F4 | %6
w: Ach Gott von|Him- mel sih da|rein und laß dich|deß er- bar- *|men|Wie we- nig|
 _E4 F4 F4 G4 | ^F6 G2 G4 =F4 | _E4 G4 G4 ^F4 | G4 E4 C4 D4 | C4 A,4 D4 B,4 | A,6 D2 _E4 D4 | %12
w: sind der Heil- gen|dein, ver- laß- sen|sind wir Ar- *|men; dein Wort man|lest nicht ha- ben|waar, der Glaub ist|
 F4 F4 _E4 D4 | D6 D2 F4 D4 | F4 F4 F4 D4 | F8 E8 |] %16
w: auch ver- lo- schen|gar bey al- len|Men- schen Kin- *|* der.|
V:3
 d8 d4 d4 | B4 B4 d4 d4 | d6 _e2 d4 d4 | B4 _e4 d8 |[M:1/2] =B4 |[M:4/2] d8 d4 d4 | B4 B4 d4 d4 | %7
w: Ach Gott von|Him- mel sih da|rein und laß dich|deß er- bar-|men|Wie we- nig|sind der Heil- gen|
 d6 _e2 d4 d4 | B4 _e4 d8 | =B4 c4 A4 A4 | A4 F4 D4 D4 | ^F6 A2 c4 B4 | c4 d4 c4 A4 | %13
w: dein, ver- laß- sen|sind wir Ar-|men; dein Wort man|lest nicht ha- ben|waar, der Glaub ist|auch ver- lo- schen|
 =B6 _B2 A4 G4 | A4 B4 A4 B4 | d8 ^c8 |] %16
w: gar bey al- len|Men- schen Kin- *|* der.|
V:4
 D,8 G,4 D,4 | _E,4 B,,4 B,4 G,4 | D,6 C,2 G,4 D,4 | _E,4 C,4 G,4 D,4 |[M:1/2] G,,4 | %5
w: Ach Gott von|Him- mel sih da|rein und laß dich|deß er- bar- *|men|
[M:4/2] D,8 G,4 D,4 | _E,4 B,,4 B,4 G,4 | D,6 C,2 G,4 D,4 | _E,4 C,4 G,4 D,4 | G,,4 C,4 F,4 D,4 | %10
w: Wie we- nig|sind der Heil- gen|dein, ver- laß- sen|sind wir Ar- *|men; dein Wort man|
 A,,4 D,4 B,,4 G,,4 | D,6 D,2 C,4 G,4 | F,4 B,,4 C,4 D,4 | G,,6 G,2 D,4 G,4 | F,4 B,,4 F,4 G,4 | %15
w: lest nicht ha- ben|waar, der Glaub ist|auch ver- lo- schen|gar bey al- len|Men- schen Kin- *|
 D,8 A,,8 |] %16
w: * der.|

